!!!!SEGMENT: pl-kk--kk-i-7--099_gorczycki-grzegorz-gerwazy--salve-mundi-domina.krn
!!!cenid: 16xx:938
!!!COM: Gorczycki, Grzegorz Gerwazy
!!!COM-rismID: pe30009207
!!!CDT: ~1666-1734/04/30
!!!CNT: Polish
!!!OTL: Salve mundi Domina
!!!PDT:
!!!AGN: Sacred
!!!YEC: Copyright 2022 Narodowy Instytut Fryderyka Chopina (https://polishscores.org)
!!!YEM: License CC-BY-4.0 (https://creativecommons.org/licenses/by/4.0)
!!!SMS-siglum: PL-Kk
!!!SMS-shelfmark: Kk.I.7
!!!SMS-shelfwork: 099 W
!!!SMS-variant:
!!!SMS-altvar:
!!!NIFC-rismSourceID: 300258077
!!!NIFC-rismChildID: 300258176
!!!NIFC-islandoraID: pl-kk:1956
!!!URL-pdf-islandora: https://repozytorium.nifc.pl/islandora/object/pl-kk%3A1956/datastream/PDF/view
!!!URL-scan: https://polish.musicsources.pl/pl/lokalizacje/galeria/rekopisy/6140 @EN{Scan on Polish Music Sources Website} @PL{Skany w portalu Dziedzictwo Muzyki Polskiej w otwartym dostępie}
!!!IIIF: https://repozytorium.nifc.pl/islandora/object/pl-kk%3A1956/datastream/IIIF/view
!!!ONB-nifc: UWAGA: C (skan 0077, s.146-147), A (0155, s.130-131), T (0242, s.146-147), B (0329, s.142-143). Następny utwór: Salve virgo puerpera
!!!AIN: 1 alto 1 bass 2 tenor
!!!key: d:dor
**kern	**text	**text	**text	**text	**kern	**text	**text	**text	**text	**kern	**text	**text	**text	**text	**kern	**text	**text	**text	**text
*part4	*part4	*part4	*part4	*part4	*part3	*part3	*part3	*part3	*part3	*part2	*part2	*part2	*part2	*part2	*part1	*part1	*part1	*part1	*part1
*staff4	*staff4	*staff4	*staff4	*staff4	*staff3	*staff3	*staff3	*staff3	*staff3	*staff2	*staff2	*staff2	*staff2	*staff2	*staff1	*staff1	*staff1	*staff1	*staff1
*	*verse1	*verse2	*verse3	*verse4	*	*verse1	*verse2	*verse3	*verse4	*	*verse1	*verse2	*verse3	*verse4	*	*verse1	*verse2	*verse3	*verse4
!	!LO:MO:null:mod=*v&colon;1	!LO:MO:null:mod=*v&colon;2	!LO:MO:null:mod=*v&colon;3	!LO:MO:null:mod=*v&colon;4	!	!LO:MO:null:mod=*v&colon;1	!LO:MO:null:mod=*v&colon;2	!LO:MO:null:mod=*v&colon;3	!LO:MO:null:mod=*v&colon;4	!	!LO:MO:null:mod=*v&colon;1	!LO:MO:null:mod=*v&colon;2	!LO:MO:null:mod=*v&colon;3	!LO:MO:null:mod=*v&colon;4	!	!LO:MO:null:mod=*v&colon;1	!LO:MO:null:mod=*v&colon;2	!LO:MO:null:mod=*v&colon;3	!LO:MO:null:mod=*v&colon;4
*	*null	*null	*null	*null	*	*null	*null	*null	*null	*	*null	*null	*null	*null	*	*null	*null	*null	*null
*I"BASSVS.	*	*	*	*	*I"TENOR.	*	*	*	*	*I"ALTVS.	*	*	*	*	*I"CANTVS.	*	*	*	*
*mI"Basso	*	*	*	*	*mI"Tenore II	*	*	*	*	*mI"Alto	*	*	*	*	*mI"Tenore I	*	*	*	*
*I'B	*	*	*	*	*I'T	*	*	*	*	*I'A	*	*	*	*	*I'S	*	*	*	*
*	*	*	*	*	*mI'T 2	*	*	*	*	*	*	*	*	*	*mI'T 1	*	*	*	*
*Ibass	*	*	*	*	*Itenor	*	*	*	*	*Ialto	*	*	*	*	*Itenor	*	*	*	*
*ICvox	*	*	*	*	*ICvox	*	*	*	*	*ICvox	*	*	*	*	*ICvox	*	*	*	*
*clefF4	*	*	*	*	*clefC4	*	*	*	*	*clefC3	*	*	*	*	*clefC4	*	*	*	*
*	*	*	*	*	*mclefGv2	*	*	*	*	*mclefG2	*	*	*	*	*mclefGv2	*	*	*	*
*k[]	*	*	*	*	*k[]	*	*	*	*	*k[]	*	*	*	*	*k[]	*	*	*	*
*d:dor	*	*	*	*	*d:dor	*	*	*	*	*d:dor	*	*	*	*	*d:dor	*	*	*	*
*M2/1	*	*	*	*	*M2/1	*	*	*	*	*M2/1	*	*	*	*	*M2/1	*	*	*	*
*met(C|)	*	*	*	*	*met(C|)	*	*	*	*	*met(C|)	*	*	*	*	*met(C|)	*	*	*	*
*mmet(c|)	*	*	*	*	*mmet(c|)	*	*	*	*	*mmet(c|)	*	*	*	*	*mmet(c|)	*	*	*	*
=1-	=1-	=1-	=1-	=1-	=1-	=1-	=1-	=1-	=1-	=1-	=1-	=1-	=1-	=1-	=1-	=1-	=1-	=1-	=1-
*xywh-#329:1239,3096,6030,1947	*	*	*	*	*xywh-#242:1286,2883,5991,1622	*	*	*	*	*xywh-#155:1253,2915,6134,1654	*	*	*	*	*xywh-#77:1095,3312,6135,1581	*	*	*	*
*2\right	*	*	*	*	*2\right	*	*	*	*	*2\right	*	*	*	*	*2\right	*	*	*	*
!	!	!	!	!	!	!	!	!	!	!	!	!	!	!	!LO:TX:t=P:problem=kreska pseudotaktowa	!	!	!	!
2r	.	.	.	.	1D	Sal-	Sal-	Ab	Ter-	2r	.	.	.	.	1A	Sal-	Sal-	Ab	Ter-
1D	Sal-	Sal-	Ab	Ter-	.	.	.	.	.	1f	Sal-	Sal-	Ab	Ter-	.	.	.	.	.
!	!	!	!	!	!LO:TX:t=P:problem=kreska pseudotaktowa	!	!	!	!	!	!	!	!	!	!	!	!	!	!
.	.	.	.	.	1F	-ve	-ve	ae-	-ram	.	.	.	.	.	1A	-ve	-ve	ae-	-ram
!LO:TX:t=P:problem=kreska pseudotaktowa	!	!	!	!	!	!	!	!	!	!LO:TX:t=P:problem=kreska pseudotaktowa	!	!	!	!	!	!	!	!	!
2D/	-ve	-ve	ae-	-ram	.	.	.	.	.	2d\	-ve	-ve	ae-	-ram	.	.	.	.	.
=2-	=2-	=2-	=2-	=2-	=2-	=2-	=2-	=2-	=2-	=2-	=2-	=2-	=2-	=2-	=2-	=2-	=2-	=2-	=2-
!	!	!	!	!	!	!LO:MO:mod=mun-	!	!	!	!	!	!	!	!	!	!LO:MO:mod=mun-	!	!	!
2C/	mun-	ple-	-ter-	pon-	1G	Mun-	ple-	-ter-	pon-	2g\	mun-	ple-	-ter-	pon-	2c\	Mun-	ple-	-ter-	pon-
!LO:TX:t=P:problem=kreska pseudotaktowa	!	!	!	!	!	!	!	!	!	!	!	!	!	!	!LO:TX:t=P:problem=kreska pseudotaktowa	!	!	!	!
2BB-X/	-di	-na	-no	-tum	.	.	.	.	.	2g\	-di	-na	-no	-tum	2d\	-di	-na	-no	-tum
!	!	!LO:MO:mod=gra-	!	!LO:MO:null:mod=ae-	!LO:TX:t=P:problem=kreska pseudotaktowa	!	!	!	!	!	!	!	!	!	!	!	!	!	!
2AA/	Do-	Gra-	Do-	.	1A	-di	-na	-no	-tum	2e\	Do-	gra-	Do-	ae-	4c\	Do-	gra-	Do-	ae-
.	.	.	.	.	.	.	.	.	.	.	.	.	.	.	4B-X\	.	.	.	.
!	!	!	!	!LO:MO:mod=.	!	!	!	!	!	!LO:TX:t=P::problem=kreska pseudotaktowa, między nutą a kropką	!	!	!	!	!	!	!	!	!
2.D/	.	.	.	ae-	.	.	.	.	.	2.f\	.	.	.	.	1A\	.	.	.	.
=3-	=3-	=3-	=3-	=3-	=3-	=3-	=3-	=3-	=3-	=3-	=3-	=3-	=3-	=3-	=3-	=3-	=3-	=3-	=3-
!	!	!	!	!	!	!	!LO:MO:mod=gra-	!	!	!	!	!	!	!	!	!	!	!	!
.	.	.	.	.	1F	Do-	Gra-	Do-	ae-	.	.	.	.	.	.	.	.	.	.
4C/	.	.	.	.	.	.	.	.	.	4e\	.	.	.	.	.	.	.	.	.
!LO:SIC:v:o=4BBny/	!	!	!	!	!	!	!	!	!	!	!	!	!	!	!	!	!	!	!
4BB-	.	.	.	.	.	.	.	.	.	2d\	.	.	.	.	1d	.	.	.	.
!LO:TX:t=P:problem=kreska pseudotaktowa	!	!	!	!	!	!	!	!	!	!	!	!	!	!	!	!	!	!	!
4AA/	.	.	.	.	.	.	.	.	.	.	.	.	.	.	.	.	.	.	.
2GG/	.	.	.	.	2.E/	.	.	.	.	(>4g\	.	.	.	.	.	.	.	.	.
.	.	.	.	.	.	.	.	.	.	4f\	.	.	.	.	.	.	.	.	.
!LO:TX:t=P:problem=kreska pseudotaktowa	!	!	!	!	!	!	!	!	!	!	!	!	!	!	!LO:TX:t=P:problem=kreska pseudotaktowa	!	!	!	!LO:MO:mod=-the-
2AA/	-mi-	-ti-	-mi-	-the-	.	.	.	.	.	4e\)	.	.	.	.	2c#X\	-mi-	-ti-	-mi-	-(t)he-
!	!	!	!	!	!	!	!	!	!	!LO:TX:t=P:problem=kreska pseudotaktowa	!	!	!	!	!	!	!	!	!
.	.	.	.	.	4E/	-mi-	-ti-	-mi-	-the-	4e\|	-mi-	-ti-	-mi-	-the-	.	.	.	.	.
=4-	=4-	=4-	=4-	=4-	=4-	=4-	=4-	=4-	=4-	=4-	=4-	=4-	=4-	=4-	=4-	=4-	=4-	=4-	=4-
!LO:TX:t=P:problem=kreska pseudotaktowa	!	!	!	!LO:MO:mod=-ra	!LO:TX:t=P:problem=kreska pseudotaktowa	!	!	!	!	!	!	!	!LO:MO:mod=-nus	!	!	!	!	!	!
1D	-na	-a	-nus	-ra,	1D	-na	-a	-nus	-ra	2f,<\	-na	-a	-n(us)	-ra	2d,<\	-na	-a	-nus	-ra
!	!	!	!	!	!	!	!	!	!	!LO:TX:t=P:problem=kreska pseudotaktowa	!LO:MO:mod=cae-	!LO:MO:mod=cla-	!LO:MO:mod=te	!LO:MO:mod=te	!	!LO:MO:mod=cae-	!LO:MO:mod=cla-	!LO:MO:mod=te	!LO:MO:mod=te
.	.	.	.	.	.	.	.	.	.	2f\	Cae-	Cla-	Te	Te	1A	Cae-	Cla-	Te	Te
!LO:SIC:o=4AA/	!LO:MO:mod=cae-	!LO:MO:mod=cla-	!LO:MO:mod=te	!LO:MO:mod=te	!	!LO:MO:mod=cae-	!LO:MO:mod=cla-	!LO:MO:mod=te	!LO:MO:mod=te	!	!	!	!	!	!	!	!	!	!
(4AA	Cae-	Cla-	Te	Te	1c	Cae-	Cla-	Te	Te	2e\	-lo-	-ra	prae-	pul-	.	.	.	.	.
!LO:SIC:o=(<4BB/	!	!	!LO:MO:mod=.	!	!	!	!	!	!	!	!	!	!	!	!	!	!	!	!
4BB	.	.	prae-	.	.	.	.	.	.	.	.	.	.	.	.	.	.	.	.
!	!	!	!	!	!	!	!	!	!	!	!	!LO:MO:null:mod=lux	!	!	!LO:TX:t=P:problem=kreska pseudotaktowa	!	!	!	!
4C/	.	.	.	.	.	.	.	.	.	1e\	-rum	.	-or-	-chram	2A/	-lo-	-ra	prae-	pul-
!LO:TX:t=P:problem=kreska pseudotaktowa	!	!	!	!	!	!	!	!	!	!	!	!	!	!	!	!	!	!	!
4D/)	.	.	.	.	.	.	.	.	.	.	.	.	.	.	.	.	.	.	.
=5-	=5-	=5-	=5-	=5-	=5-	=5-	=5-	=5-	=5-	=5-	=5-	=5-	=5-	=5-	=5-	=5-	=5-	=5-	=5-
!	!	!LO:MO:null:mod=-ra	!LO:MO:mod=.	!	!	!	!	!	!	!	!	!	!	!	!	!	!	!	!
2E\	-lo-	.	-or-	pul-	1Bn	-lo-	-ra	prae-	pul-	.	.	.	.	.	2A/	-rum	lux	-or-	-chram
!LO:TX:t=P:problem=kreska pseudotaktowa	!	!LO:MO:mod=lux	!LO:MO:mod=prae-	!	!	!	!	!	!	!LO:TX:t=P:problem=kreska pseudotaktowa	!LO:MO:null:mod=Re-	!LO:MO:mod=di-	!	!	!LO:TX:t=P:problem=kreska pseudotaktowa	!	!	!	!
2E\	-rum	-ra	-di-	-chram	.	.	.	.	.	2e\	.	lux	-di-	or-	2G#X/	Re-	di-	-di-	or-
!	!	!LO:MO:mod=di-	!LO:MO:mod=-or-	!LO:MO:null:mod=or-	!	!	!	!	!	!	!LO:MO:mod=-gi-	!LO:MO:mod=-vi-	!	!	!	!	!	!	!
(>4D\	Re-	lux	-na-	.	1d	-rum	lux	-or-	-chram	1f	Re-	di-	-na-	-na-	4A/	-gi-	-vi-	-na-	-na-
!	!	!	!	!	!	!	!	!	!	!	!	!	!	!	!LO:SIC:o=4Gny	!	!	!	!
4E\	.	.	.	.	.	.	.	.	.	.	.	.	.	.	4G	.	.	.	.
4F\	.	.	.	.	.	.	.	.	.	.	.	.	.	.	4A/	.	.	.	.
!LO:TX:t=P:problem=kreska pseudotaktowa	!	!LO:MO:mod=.	!	!LO:MO:mod=.	!	!	!	!	!	!	!	!	!	!	!LO:TX:t=P:problem=kreska pseudotaktowa	!	!	!	!
4G\)	.	di-	.	or-	.	.	.	.	.	.	.	.	.	.	4B/	.	.	.	.
=6-	=6-	=6-	=6-	=6-	=6-	=6-	=6-	=6-	=6-	=6-	=6-	=6-	=6-	=6-	=6-	=6-	=6-	=6-	=6-
!	!	!LO:MO:mod=.	!	!LO:MO:mod=.	!LO:TX:t=P:problem=kreska pseudotaktowa	!	!	!	!	!	!LO:MO:mod=.	!LO:MO:mod=.	!	!	!	!	!	!	!
4A\	.	-vi-	.	-na-	1c	Re-	di-	-di-	or-	2e\	-gi-	-vi-	.	.	2cny\	.	.	.	.
!	!	!LO:MO:null:mod=-vi-	!LO:MO:null:mod=-di-	!LO:MO:null:mod=-na-	!	!	!	!	!	!	!	!	!	!	!	!	!	!	!
4AA/	.	.	.	.	.	.	.	.	.	.	.	.	.	.	.	.	.	.	.
!	!	!	!	!	!	!	!	!	!	!	!	!	!	!	!LO:TX:t=P:problem=kreska pseudotaktowa	!	!	!LO:MO:mod=-vit	!
4C/	.	.	.	.	.	.	.	.	.	1a	.	.	.	.	2A/	-na	-na	-vit,	-vit
!LO:TX:t=P:problem=kreska pseudotaktowa	!	!	!	!	!	!	!	!	!	!	!	!	!	!	!	!	!	!	!
4D/	.	.	.	.	.	.	.	.	.	.	.	.	.	.	.	.	.	.	.
!LO:TX:t=P:problem=kreska pseudotaktowa	!	!	!LO:MO:null:mod=-na-	!	!	!	!	!	!	!	!	!	!	!	!LO:TX:t=P:problem=kreska pseudotaktowa	!	!	!	!
1E	-gi-	.	.	.	1B	-gi-	-vi-	-na-	-na-	.	.	.	.	.	1r	.	.	.	.
!	!	!	!	!	!	!	!	!	!	!LO:TX:t=P:problem=kreska pseudotaktowa	!	!	!	!	!	!	!	!	!
.	.	.	.	.	.	.	.	.	.	2g#X\	.	.	.	.	.	.	.	.	.
=7-	=7-	=7-	=7-	=7-	=7-	=7-	=7-	=7-	=7-	=7-	=7-	=7-	=7-	=7-	=7-	=7-	=7-	=7-	=7-
!	!	!	!	!	!LO:TX:t=P:problem=kreska pseudotaktowa	!	!	!LO:MO:mod=-vit	!	!LO:TX:t=P:problem=kreska pseudotaktowa	!LO:MO:mod=-na	!LO:MO:mod=-na	!LO:MO:mod=-vit	!LO:MO:mod=-vit	!	!	!LO:MO:mod=mun-	!LO:MO:mod=ma-	!LO:MO:mod=si-
2AA,</	-na	-na	-vit	-vit	1A	-na	-na	-vit,	-vit	0a	-na,	-na:	-vit,	-vit,	2c\	Sal-	Mun-	Ma-	Si-
!	!LO:MO:mod=Sal-	!	!LO:MO:mod=ma-	!LO:MO:mod=si-	!	!	!	!	!	!	!	!	!	!	!LO:TX:t=P:problem=kreska pseudotaktowa	!	!	!	!
1F	sal-	mun-	Ma-	Si-	.	.	.	.	.	.	.	.	.	.	2c\	-ve	-di	-trem	-bi
!	!	!	!	!	!	!LO:MO:mod=Sal-	!LO:MO:mod=mun-	!LO:MO:mod=ma-	!LO:MO:mod=si-	!	!	!	!	!	!	!	!	!LO:MO:mod=u-	!LO:MO:mod=spon-
.	.	.	.	.	1c	sal-	Mun-	Ma-	Si-	.	.	.	.	.	2A/	Vir-	in	U-	Spon-
!LO:TX:t=P:problem=kreska pseudotaktowa	!	!	!	!	!	!	!	!	!	!	!	!	!	!	!LO:TX:t=P:problem=kreska pseudotaktowa	!	!	!	!
2F\	-ve	-di	-trem	-bi	.	.	.	.	.	.	.	.	.	.	2F/	-go	au-	-ni-	-sam
*custos:E	*	*	*	*	*	*	*	*	*	*	*	*	*	*	*custos:c	*	*	*	*
!LO:PB:g=original	!	!	!	!	!	!	!	!	!	!	!	!	!	!	!LO:PB:g=original	!	!	!	!
=8-	=8-	=8-	=8-	=8-	=8-	=8-	=8-	=8-	=8-	=8-	=8-	=8-	=8-	=8-	=8-	=8-	=8-	=8-	=8-
*xywh-#329:7245,411,6382,1707	*	*	*	*	*	*	*	*	*	*	*	*	*	*	*xywh-#77:7199,485,6481,1706	*	*	*	*
!	!	!	!	!	!	!	!	!	!	!LO:TX:t=P:problem=kreska pseudotaktowa	!	!	!	!	!	!	!	!	!
!	!	!	!LO:MO:mod=u-	!LO:MO:mod=spon-	!LO:TX:t=P:problem=kreska pseudotaktowa	!	!	!	!	!	!	!	!	!	!	!LO:MO:mod=vir-	!	!	!
2E\	Vir-	in	Uni-	Spon-	1c	-ve	-di	-trem	-bi	0r	.	.	.	.	2.c\	Vir-	-xi-	-ge-	in
!LO:TX:t=P:problem=kreska pseudotaktowa	!	!	!LO:MO:mod=-ni-	!	!	!	!	!	!	!	!	!	!	!	!	!	!	!	!
2C/	-go	au-	ge-	-sam	.	.	.	.	.	.	.	.	.	.	.	.	.	.	.
!	!	!	!	!	!	!	!	!	!	!	!	!	!	!	!LO:TX:t=P:problem=kreska pseudotaktowa	!	!LO:MO:mod=-li-	!	!LO:MO:mod=A-
.	.	.	.	.	.	.	.	.	.	.	.	.	.	.	4c\	-gi-	-lium	-ni-	a-
!	!	!LO:MO:mod=-xi-	!LO:MO:null:mod=-ge-	!LO:MO:null:mod=in	!	!	!	!LO:MO:mod=u-	!LO:MO:mod=spon-	!	!	!	!	!	!	!	!LO:MO:null:mod=-um	!	!
(>2D\	vir-	-xi[[li]]-	.	.	1B-X	Vir-	in	uni-	Spon-	.	.	.	.	.	2F,</	-num	.	-ti	-dam
!LO:TX:t=P:problem=kreska pseudotaktowa	!	!	!	!LO:MO:mod=.	!	!	!	!	!	!	!	!	!	!	!	!	!	!LO:MO:mod=u-	!
2E\)	.	.	.	in	.	.	.	.	.	.	.	.	.	.	4Gny/	Vir-	mun-	Uni-	in
!	!	!	!	!	!	!	!	!	!	!	!	!	!	!	!LO:TX:t=P:problem=kreska pseudotaktowa	!	!	!LO:MO:mod=-ni-	!LO:MO:mod=.
.	.	.	.	.	.	.	.	.	.	.	.	.	.	.	4G/	-go	-di	-ge-	a-
*	*	*	*	*	*	*	*	*	*	*custos:f	*	*	*	*	*	*	*	*	*
!	!	!	!	!	!	!	!	!	!	!LO:PB:g=original	!	!	!	!	!	!	!	!	!
=9-	=9-	=9-	=9-	=9-	=9-	=9-	=9-	=9-	=9-	=9-	=9-	=9-	=9-	=9-	=9-	=9-	=9-	=9-	=9-
*	*	*	*	*	*	*	*	*	*	*xywh-#155:7431,515,6229,1715	*	*	*	*	*	*	*	*	*
!	!	!	!	!LO:MO:mod=A-	!LO:TX:t=P:problem=kreska pseudotaktowa	!LO:MO:mod=-go	!	!LO:MO:null:mod=-ni-	!	!	!	!	!LO:MO:mod=ma-	!LO:MO:mod=si-	!	!LO:MO:mod=vir-	!	!LO:MO:null:mod=-ge-	!LO:MO:null:mod=A-
4F\	.	.	.	a-	1A	-go,	au-	.	-sam	2f\	Sal-	mun-	Ma-	Si-	4A\	Vir-	in	.	.
4FF/	.	.	.	.	.	.	.	.	.	.	.	.	.	.	4B-X\	.	.	.	.
!	!	!	!	!	!	!	!	!	!	!LO:TX:t=P:problem=kreska pseudotaktowa	!	!	!	!	!	!	!LO:MO:mod=.	!	!
4AA/	.	.	.	.	.	.	.	.	.	2f\	-ve	-di	-trem	-bi	1c	.	au-	.	.
!LO:TX:t=P:problem=kreska pseudotaktowa	!	!	!	!	!	!	!	!	!	!	!	!	!	!	!	!	!	!	!
4BB-X/	.	.	.	.	.	.	.	.	.	.	.	.	.	.	.	.	.	.	.
*	*	*	*	*	*custos:G	*	*	*	*	*	*	*	*	*	*	*	*	*	*
*	*	*	*	*	*xywh-#242:7243,371,6327,1700	*	*	*	*	*	*	*	*	*	*	*	*	*	*
!	!	!	!	!	!LO:PB:g=original	!LO:MO:mod=vir-	!	!	!	!	!	!	!LO:MO:mod=u-	!LO:MO:mod=spon-	!	!	!	!	!
2C/	.	.	.	.	1.G	Vir-	-xi-	ge-	in	4e\	Vir-	in	uni-	Spon-	.	.	.	.	.
!	!	!	!	!	!	!	!	!	!	!	!	!	!LO:MO:null:mod=-ni-	!	!	!	!	!	!
.	.	.	.	.	.	.	.	.	.	4c\	-go	au-	.	-sam	.	.	.	.	.
!LO:TX:t=P:problem=kreska pseudotaktowa	!	!	!	!	!	!	!	!	!	!	!LO:MO:mod=vir-	!	!	!	!LO:TX:t=P:problem=kreska pseudotaktowa	!	!LO:MO:null:mod=au-	!	!
2BB-X/	.	.	.	.	.	.	.	.	.	1f\	Vir-	-xi-	ge-	in	2G/	.	.	.	.
=10-	=10-	=10-	=10-	=10-	=10-	=10-	=10-	=10-	=10-	=10-	=10-	=10-	=10-	=10-	=10-	=10-	=10-	=10-	=10-
!	!LO:MO:mod=.	!	!	!	!	!	!	!	!	!	!	!	!	!	!	!	!	!	!
2.C/	-gi-	.	.	.	.	.	.	.	.	.	.	.	.	.	2.c\	.	-xi-	.	.
!	!	!	!	!	!	!	!LO:MO:mod=-li-	!	!LO:MO:mod=A-	!LO:TX:t=P:problem=kreska pseudotaktowa	!	!LO:MO:mod=-li-	!	!LO:MO:mod=A-	!	!	!	!	!
.	.	.	.	.	2G/	-gi-	-lium	-ni-	a-	2e\	-gi-	-lium	-ni-	a-	.	.	.	.	.
!	!LO:MO:mod=-gi-	!LO:MO:mod=-li-	!	!	!	!	!	!	!	!	!	!	!	!	!	!	!LO:MO:mod=-li-	!	!LO:MO:mod=.
4C/	-num	-lium	-ni-	.	.	.	.	.	.	.	.	.	.	.	4B-X\	-gi-	-lium	-ni-	-dam
!	!LO:MO:null:mod=-num	!LO:MO:null:mod=-um	!	!	!LO:TX:t=P:problem=kreska pseudotaktowa	!	!LO:MO:null:mod=-um	!	!	!LO:TX:t=P:problem=kreska pseudotaktowa	!	!LO:MO:null:mod=-um	!	!	!LO:TX:t=P:problem=kreska pseudotaktowa	!	!LO:MO:null:mod=-um	!	!LO:MO:null:mod=-dam
1FF,	.	.	-ti	-dam	1A	-num	.	-ti	-dam	1f	-num	.	-ti	-dam	1A	-num	.	-ti	.
=11-	=11-	=11-	=11-	=11-	=11-	=11-	=11-	=11-	=11-	=11-	=11-	=11-	=11-	=11-	=11-	=11-	=11-	=11-	=11-
!LO:TX:t=P:problem=kreska pseudotaktowa	!	!	!	!	!	!	!	!	!	!	!	!	!	!	!	!	!	!	!
!LO:MO:mod=1.C	!LO:MO:mod=stel-	!	!	!	!	!	!	!	!	!	!	!	!	!	!	!	!	!	!
[<1C	Stel-	Do-	Ver-	quae	1G	stel-	Do-	Ver-	quae	2r	.	.	.	.	2r	.	.	.	.
!	!	!	!	!	!	!	!	!	!	!	!	!	!	!	!	!LO:MO:mod=stel-	!	!	!
.	.	.	.	.	.	.	.	.	.	1e	stel-	Do-	Ver-	quae	1c	Stel-	Do-	Ver-	quae
!LO:N:xstem:cue:vis=4	!	!	!	!	!LO:TX:t=P:problem=kreska pseudotaktowa	!	!	!	!	!	!	!	!	!	!	!	!	!	!
!LO:MO:mod=.	!	!	!	!	!	!	!	!	!	!	!	!	!	!	!	!	!	!	!
2C]	.	.	.	.	1A	-la	-mi-	-bi	nun-	.	.	.	.	.	.	.	.	.	.
!	!	!	!	!	!	!	!	!	!	!LO:TX:t=P:problem=kreska pseudotaktowa	!	!	!	!	!LO:TX:t=P:problem=kreska pseudotaktowa	!	!	!	!
2D/	-la	-mi-	-bi	nun-	.	.	.	.	.	2f\	-la	-mi-	-bi	nun-	2A\	-la	-mi-	-bi	nun-
=12-	=12-	=12-	=12-	=12-	=12-	=12-	=12-	=12-	=12-	=12-	=12-	=12-	=12-	=12-	=12-	=12-	=12-	=12-	=12-
!	!	!	!	!	!	!	!	!	!	!	!	!	!	!	!LO:SIC:v:o=2Bny\	!	!	!	!
2BB-X/	ma-	-na	quo	-quam	1G	ma-	-na	quo	-quam	2d\	ma-	-na	quo	-quam	2B-	ma-	-na	quo	-quam
!LO:TX:t=P:problem=kreska pseudotaktowa	!	!LO:MO:mod=cre-	!	!LO:MO:null:mod=pec-	!	!	!	!	!	!LO:TX:t=P:problem=kreska pseudotaktowa	!	!	!LO:MO:mod=cre-	!LO:MO:null:mod=pe-	!LO:TX:t=P:problem=kreska pseudotaktowa	!	!	!LO:MO:mod=cre-	!LO:MO:null:mod=pec-
2C/	-tu-	fe-	crea-	.	.	.	.	.	.	2e\	-tu-	fe-	crea-	.	2G/	-tu-	fe-	crea-	.
!	!	!	!LO:MO:null:mod=-a-	!LO:MO:mod=-ca-	!	!	!	!LO:MO:mod=cre-	!	!	!	!	!LO:MO:null:mod=-a-	!LO:MO:mod=-ca-	!	!	!	!LO:MO:null:mod=-a-	!LO:MO:mod=-ca-
2AA/	-ti-	-sti-	.	pec-	1F	-tu-	fe-	crea-	pec-	2c#X\	-ti-	-sti-	.	pec-	2A\	-ti-	-sti-	.	pec-
!	!	!	!	!	!	!	!	!	!	!	!	!	!	!LO:MO:mod=.	!	!	!	!	!LO:MO:mod=.
2BB-X/	.	.	.	.	.	.	.	.	.	1d\	.	.	.	-ca-	2F/	.	.	.	-ca-
=13-	=13-	=13-	=13-	=13-	=13-	=13-	=13-	=13-	=13-	=13-	=13-	=13-	=13-	=13-	=13-	=13-	=13-	=13-	=13-
!	!	!	!	!LO:MO:mod=.	!	!	!	!LO:MO:null:mod=-a-	!	!	!	!	!	!	!	!	!	!	!
(<2GG/	.	.	.	-ca-	1E	-ti-	-sti-	.	-ca-	.	.	.	.	.	2B-X\	.	.	.	.
!LO:TX:t=P:problem=kreska pseudotaktowa	!	!	!	!	!	!	!	!	!	!LO:TX:t=P:problem=kreska pseudotaktowa	!	!	!	!	!LO:TX:t=P:problem=kreska pseudotaktowa	!	!	!	!
2AA/)	.	.	.	.	.	.	.	.	.	2c#X\	.	.	.	.	2A\	.	.	.	.
!	!LO:MO:mod=-na.	!LO:MO:mod=-na.	!LO:MO:mod=-vit.	!	!	!	!LO:MO:mod=-na.	!LO:MO:mod=-vit.	!	!	!	!	!	!	!	!LO:MO:mod=-na.	!LO:MO:mod=-na.	!	!
0D;>	-na	-na	-vit	-vit.	0D;>	-na.	-na	-vit	-vit.	0d;>	-na.	-na.	-vit.	-vit.	0A;>	-na	-na	-vit.	-vit.
==	==	==	==	==	==	==	==	==	==	==	==	==	==	==	==	==	==	==	==
*-	*-	*-	*-	*-	*-	*-	*-	*-	*-	*-	*-	*-	*-	*-	*-	*-	*-	*-	*-
!!!system-decoration: [*]
!!!RDF**kern: > = above
!!!RDF**kern: < = below
!!LO:MO:mod
!!!RDF**kern: | = vertical stroke
!!LO:MO:end
!!!filter-modern: shed -e "s/^(\d+[\/\\]right)/$1yy/I; s/TX(.*):t=P:/tx$1:t=P:/LG; s/^custos:/Xcustos:/I; s/LO:N:/LO:n:$1/L" | shed -k -e "s/[,<]/$1/gD; s/([^a-gA-Gn#X-])[<>]/$1/g" | sic -sq | modori -m | autostem -r | tie -s | humtr -p | shed -e "s/-//B" | extract -k 1,2,4,3
!!!ENC: Andrzej Gręziak
!!!END: 2021-03-10
!!!EED: Mateusz Mrugas
!!!EEV: 2021-03-20
!!!ENC-modern: Andrzej Kubiczek
!!!END-modern: 2023-08-03
!!!ENC-iiif: Lidia Bialucha
!!!END-iiif: 2022-09-15
